pro/src/icons/stroke-comedy.svg

<svg width="48" height="48" fill="none" xmlns="http://www.w3.org/2000/svg" id="icon">
    <path fill-rule="evenodd" clip-rule="evenodd"
          d="M30.2166 45.0003C29.7164 45.0003 29.2063 44.9103 28.7262 44.7103L21.1442 41.6103C14.5925 38.9303 9.56113 33.2403 7.69064 26.3703L5.02994 16.6003C4.97993 16.4303 4.97993 16.2603 5.02994 16.0903C5.11997 15.7503 7.32054 7.68025 20.1839 4.13026C24.6651 2.90026 28.7962 2.66026 32.4672 3.44026C33.0073 3.55026 33.3574 4.08026 33.2374 4.63026C33.1273 5.17025 32.5972 5.52026 32.0471 5.40026C28.6862 4.69026 24.8752 4.91026 20.7041 6.06026C10.0913 9.00026 7.48059 15.0703 7.04047 16.3603L9.62115 25.8503C11.3316 32.1203 15.9128 37.3203 21.8944 39.7603L29.4764 42.8603C30.2966 43.1903 31.2568 42.9303 31.797 42.2203L36.7483 35.6703C40.6593 30.5003 41.9797 23.6703 40.2692 17.4003L37.6085 7.63026C37.4585 7.10026 37.7786 6.55026 38.3087 6.40026C38.8388 6.25026 39.389 6.57026 39.539 7.10026L42.1997 16.8703C44.0702 23.7303 42.6198 31.2103 38.3387 36.8703L33.3874 43.4203C32.6172 44.4403 31.4269 45.0003 30.2166 45.0003ZM33.7077 16.4402C33.8977 16.5902 34.1278 16.6702 34.3478 16.6702C34.6379 16.6702 34.928 16.5502 35.108 16.3102C35.4681 15.8802 35.4081 15.2502 34.978 14.9002C33.6376 13.7902 32.1873 13.5702 31.4471 13.5402C29.7166 13.4602 28.4263 14.1702 27.8161 14.5902C27.366 14.9002 27.256 15.5302 27.566 15.9802C27.8761 16.4302 28.4963 16.5402 28.9564 16.2302C29.3665 15.9502 30.2167 15.4802 31.367 15.5402C31.8572 15.5602 32.8174 15.7102 33.7077 16.4402ZM16.7431 31.4905C17.2332 32.1205 22.0545 38.1505 27.4959 38.1505C28.1161 38.1505 28.7462 38.0705 29.3764 37.8805C35.538 36.1905 36.8884 26.7805 36.9984 25.9005C37.1584 25.1005 36.8383 24.2905 36.1582 23.8305C35.458 23.3605 34.5677 23.3705 33.8876 23.8605C30.9068 25.9805 28.3361 27.4005 26.6357 27.8705C24.9352 28.3405 22.0044 28.4405 18.3735 28.1405C17.5333 28.0905 16.7731 28.5205 16.413 29.2805C16.0629 30.0305 16.1929 30.8905 16.7431 31.4905ZM18.3035 30.2305L18.2134 30.1405C20.9442 30.3605 24.7152 30.4905 27.1758 29.8005C29.6365 29.1205 32.8173 27.0805 35.0379 25.4805V25.4905L35.0379 25.4905C35.0279 25.5305 35.0179 25.5705 35.0179 25.6105C35.0079 25.7005 33.8776 34.5705 28.8462 35.9605C23.8149 37.3505 18.3535 30.3005 18.3035 30.2305ZM13.3121 22.0903C13.4421 22.1403 13.5822 22.1703 13.7122 22.1703C14.0923 22.1703 14.4624 21.9503 14.6424 21.5703C14.8425 21.1103 15.3326 20.2703 16.3329 19.7003C16.763 19.4603 17.6532 19.0803 18.7935 19.2303C19.3337 19.3003 19.8438 18.9203 19.9138 18.3703C19.9839 17.8303 19.6038 17.3203 19.0536 17.2503C17.3432 17.0203 15.9928 17.5903 15.3426 17.9603C13.8322 18.8103 13.102 20.0903 12.802 20.7703C12.5719 21.2803 12.802 21.8703 13.3121 22.0903Z"
          fill="currentColor"/>
</svg>

<svg xmlns="http://www.w3.org/2000/svg" id="icon" width="48" height="48" fill="none"><path fill="currentColor" fill-rule="evenodd" d="M30.217 45c-.5 0-1.01-.09-1.49-.29l-7.583-3.1c-6.551-2.68-11.583-8.37-13.453-15.24L5.03 16.6a.9.9 0 0 1 0-.51c.09-.34 2.29-8.41 15.154-11.96 4.481-1.23 8.612-1.47 12.283-.69.54.11.89.64.77 1.19-.11.54-.64.89-1.19.77-3.36-.71-7.172-.49-11.343.66C10.091 9 7.481 15.07 7.04 16.36l2.581 9.49c1.71 6.27 6.292 11.47 12.273 13.91l7.582 3.1c.82.33 1.78.07 2.321-.64l4.951-6.55c3.911-5.17 5.232-12 3.521-18.27l-2.66-9.77c-.15-.53.17-1.08.7-1.23s1.08.17 1.23.7l2.66 9.77c1.871 6.86.42 14.34-3.86 20l-4.952 6.55a3.98 3.98 0 0 1-3.17 1.58m3.49-28.56c.19.15.42.23.64.23.29 0 .581-.12.761-.36a.99.99 0 0 0-.13-1.41 5.97 5.97 0 0 0-3.53-1.36c-1.731-.08-3.022.63-3.632 1.05-.45.31-.56.94-.25 1.39s.93.56 1.39.25a3.92 3.92 0 0 1 2.411-.69 4 4 0 0 1 2.34.9M16.744 31.49c.49.63 5.312 6.66 10.753 6.66.62 0 1.25-.08 1.88-.27 6.162-1.69 7.512-11.1 7.622-11.98.16-.8-.16-1.61-.84-2.07a1.97 1.97 0 0 0-2.27.03c-2.981 2.12-5.552 3.54-7.252 4.01s-4.632.57-8.262.27c-.84-.05-1.6.38-1.961 1.14-.35.75-.22 1.61.33 2.21m1.56-1.26-.09-.09c2.731.22 6.502.35 8.963-.34 2.46-.68 5.641-2.72 7.862-4.32v.01c-.01.04-.02.08-.02.12-.01.09-1.14 8.96-6.172 10.35-5.031 1.39-10.492-5.66-10.542-5.73m-4.99-8.14c.13.05.27.08.4.08.38 0 .75-.22.93-.6.2-.46.69-1.3 1.69-1.87.43-.24 1.32-.62 2.46-.47a1 1 0 0 0 1.12-.86 1 1 0 0 0-.86-1.12c-1.71-.23-3.06.34-3.71.71a6.05 6.05 0 0 0-2.541 2.81c-.23.51 0 1.1.51 1.32" clip-rule="evenodd"/></svg>
